X:1
T:Urbs beata Jerusalem
T:Pietro Pontio [1532-1595]
T:From "Hymni solemniores ad vespertinas horas canendi" 1596
T:Urbs beata Jerusalem
T:In dedicatione ecclesiae
T:Copyright © 
T:Copyright © 
T:Copyright © 
T:Copyright © 
T:Copyright © 
T:Copyright © 
C:Pietro Pontio [1532-1595]
Z:From "Hymni solemniores ad
Z:vespertinas horas canendi" 1596
Z:Copyright ©
%%score [ 1 2 3 4 ]
L:1/8
M:6/4
K:F
V:1 treble nm="Cantus" snm="S."
V:2 treble nm="Altus" snm="A."
V:3 treble-8 transpose=-12 nm="Tenor" snm="T."
V:4 bass nm="Bassus" snm="B."
V:1
 z12 | z12 | z12 | z12 | z12 | z12 | z12 | z12 |[Q:1/4=20] z14[Q:1/4=20] ||[M:2/2]"^Verse two" z8 | %10
w: ||||||||||
 z8 | z8 | z8 | z8 | G4 G2 G2- | G2 F2 B4- | B2 B2 c4 | d2 d4 e2 | f3 e d2 cB | c2 c2 c2 B2 | %20
w: ||||No- va ve-|* niens _|_ e cae-|lo Nup- ti-|a- * * * *|* li tha- la-|
 A2 A2 F2 B2 | A2 d4 c2 | d8 | z8 | z8 | z2 d4 c2 | B2 A2 B3 B | A8 | z2 d4 c2 | B2 G2 A2 A2 | %30
w: mo Nup- ti- a-|li tha- la-|mo|||Co- pu-|le- tur do- mi-|no|Pla- te-|ae et mu- ri|
 B4 A4- | A4 z4 | G4 A3 G | F4 G2 B2 | AG G4 F2 | G16 || z8 | z8 | z8 | z8 | z8 | z8 | z8 | z8 | %44
w: e- ius|_|Ex au- *|* ro pu-|ris- * * si-|mo.|||||||||
 z8 | z8 | z8 | z8 | z8 | z6 ||[M:2/2]"^Verse four" z4 G4- | G4 G2 G2- | G2 F2 B2 B2 | c4 d4 | z8 | %55
w: ||||||Tun-|* si- o-|* ni- bus pres-|su- ris||
 z2 d2 d3 e | f2 f2 e2 f2- | fe d4 c2 | d4 z4 | z8 | z2 B4 A2 | G2 F2 G4 | A2 B4 A2 | B2 B2 d4 | %64
w: ex- po- *|* li- ti la-|* * * pi-|des||su- is|co- ap- ta-|tur lo- *|cis per- ma-|
 c2 A2 c4- | c2 B2 A4 | z2 =B4 B2 | =B4 c2 c2 | c2 d4 c2 | d2 A2 =B4 | c4 c2 A2- | AG G4 F2 | %72
w: num ar- ti-|* fi- cis|dis- po-|nun- tur per-|man- su- *|ri sa- cris|e- di- fi-|* * * ci-|
 G4 z4 | z4 d4 | _e4 c2 c2 | d3 c B2 A2- | AG G4 F2 | G16 |] %78
w: is,|sa-|cris e- di-|fi- * * *|* * * ci-|is.|
V:2
 z12 | z12 | z12 | z12 | z12 | z12 | z12 | z12 | z14 ||[M:2/2] z8 | z4 D4 | D2 D4 C2 | F2 D2 F4- | %13
w: ||||||||||No-|va ve- niens|_ e cae-|
 F2 ED CA, F2 | _ED D4 C2 | D2 D4 G2 | G2 D2 F4- | F4 G4 | z2 F4 G2 | A6 G2 | F2 E2 D2 G2- | %21
w: ||lo ve- ni-|ens e cae-|* lo|Nup- ti-|a- li|tha- * * *|
 GFF E/D/ E3 E | D4 ^F4 | G2 A2 F2 B2- | B2 A2 B4 | A4 z4 | z4 z2 G2- | G2 F2 D2 E2 | F2 G2 F4 | %29
w: * * * * * * la-|mo prae-|pa- ra- ta ut|_ spon- sa-|ta|Co-|* pu- le- tur|do- mi- no|
 z2 G4 F2 | G2 G2 E2 E2 | F4 D2 D2 | _E4 C2 C2 | D3 D B,4 | !courtesy!_E4 D3 D | D16 || z8 | z8 | %38
w: Pla- te-|ae et mu- ri|e- ius Ex|au- ro pu-|ris- si- no,|pu- ris- si-|mo.|||
 z8 | z8 | z8 | z8 | z8 | z8 | z8 | z8 | z8 | z8 | z8 | z6 ||[M:2/2] D4 D2 D2- | D2 D2 _E2 C2 | %52
w: ||||||||||||Tun- si- o-|* ni- bus pres-|
 D4 D4 | z2 F2 F2 G2 | A2 c4 BA | B3 A/G/ A2 =B2 | c2 c3 BAG | F2 G2 A2 A2- | A2 F2 G2 A2 | %59
w: su- ris|Ex- po- li-|ti la- * *|* * * * pi-|des, la- * * *|* pi- des su-|* is Co- ap-|
 B2 A2 G4 | G2 G4 FE | DC D4 E2- | E2 F2 F4 | D2 G2 FEFG | A2 F2 G2 A2- | AG G4 F2 | G4 z2 G2- | %67
w: ta- tur lo-|cis, co- * *|* * ap- ta-|* tur lo-|cis per- ma- * * *|* num art- ti-|* * * fi-|cis dis-|
 G2 G2 G4 | A2 A3 A A2 | F2 ^F2 G4 | E2 E2 F3 E | D2 C2 D2 D2- | DCDE F2 E2 | F4 D2 G2- | %74
w: * po- nun-|tur per- man- su-|ri sa- cris|e- di- fi- *|* ci- is sa-|* * * * * cris,|e- di- fi-|
 G2 G2 A4 | F6 F2 | D6 D2 | D16 |] %78
w: * ci- is,|e- di-|fi- ci-|is.|
V:3
"^Verse one" D2 D2 D2 C2 F2 F2 | G2 A2 A2 A2 B2 c2 | B2 B2 A2 G2 B2 A2 | G2 F2 F2 G2 B2 A2 | %4
w: Urbs be- a- ta Je- ru-|sa- * lem di- * *|cta pa- cis vi- si- o|* * quae con- stru- i-|
 G2 F2 G2 F2 G2 G2 | A2 F2 E2 D2 G2 G2 | F2 D2 C2 F2 F2 F2 | D2 E2 F2 G2 F2 G2 | %8
w: tur in cae- * lis ni-|vi ex la- pi- di- bus|* * * et an- ge-|lis co- ro- na- * ta|
 G2 A2 F2 F2 D2 C2 D2 ||[M:2/2] G4 G2 G2- | G2 F2 B3 A | G2 B2 A4- | A4 A2 FG | AB c4 A2 | %14
w: ut spon- sa- ta co- mi- te|No- va ve-|* niens _ _|_ e cae-|* lo, No- *|* * * va|
 B3 A G3 A | B2 A2 GABc | d2 B4 A2 | B2 B4 c2 | d3 c B2 AG | F2 f3 e d2- | d2 c2 d4 | z4 z2 A2- | %22
w: ve- * * *|* niens _ _ _ _|_ e cae-|lo Nup- ti-|a- * * * *|li tha- * *|* la- mo|prae-|
 A2 A2 A2 A2 | B2 c2 d4- | d4 d2 g2- | g2 f2 e4 | d4 G3 G | d2 f4 e2 | d2 B2 B2 c2 | d4 d4 | %30
w: * pa- ra- ta|ut spon- sa-|* ta Co-|* pu- le-|tur do- mi-|no Pla- te-|ae et mu- ri|e- ius|
 z2 d4 c2 | c2 d2 B3 =B | c2 c4 A2- | A2 B4 G2 | c3 B A2 A2 | G16 ||"^Verse three" D2 D2 D2 C2 | %37
w: Ex au-|ro pu- ris- si-|mo Ex au-|* ro pu-|ris- * * si-|mo.|Por- tae ni- tent|
 F2 F2 G2 A2 | A2 A2 B2 c2 | B2 B2 A2 G2 | B2 A2 G2 F2 | F2 G2 B2 A2 | G2 F2 G2 F2 | G2 G2 A2 F2 | %44
w: mar- ga- ri- *|tis, a- * *|dy- tis pa- ten-|ti- bus, * *|et vir- tu- te|me- ri- to- *|rum il- luc in-|
 E2 D2 G2 G2 | F2 D2 C2 F2 | F2 F2 D2 E2 | F2 G2 F2 G2 | G2 A2 F2 F2 | D2 C2 D2 || %50
w: tro- du- ci- tur|* * * om-|nis qui ob Chris-|ti no- * men|hic in mun- do|pre- mi- tur.|
[M:2/2] B4 B2 =B2- | B2 _B2 c2 G2 | A4 G2 g2 | fe a4 g2 | f2 ef g3 f/e/ | d3 e ^f2 g2 | a2 A2 c4 | %57
w: Tun- si- o-|* ni- bus pres-|su- ris ex-|po- * * li-|ti la- * * * *|* * * pi-|des ex- po-|
 d2 d2 f2 e2 | d2 d2 B2 c2 | d4 d2 _e2 | d4 d2 A2 | B6 c2- | c2 d2 c4 | B4 z4 | z8 | z2 d4 d2 | %66
w: li- ti, la- pi-|des su- is co-|ap- ta- tur|lo- cis, co-|ap- ta-|* tur lo-|cis||dis- po-|
 d8 | d4 e4 | f4 e4 | d2 d4 d2 | cBAG A2 c2 | B2 AG A2 A2 | G2 =B2 c2 c2- | c2 d2 B3 =B | %74
w: nun-|tur per-|man- su-|ri sa- cris|e- * * * * di-|fi- * * * ci-|is, sa- cris e-|* di- fi- ci-|
 c2 c4 A2 | B2 A2 d3 c | B2 AG A3 A | G16 |] %78
w: is, sa- cris|e- di- fi- *|* * * * ci-|is.|
V:4
 z12 | z12 | z12 | z12 | z12 | z12 | z12 | z12 | z14 ||[M:2/2] z8 | z8 | z8 | D,4 D,2 D,2- | %13
w: ||||||||||||No- va ve-|
 D,2 C,2 F,2 F,2 | G,3 F, _E,4 | D,4 G,4- | G,4 F,4 | B,,4 z4 | z8 | z2 F,4 G,2 | A,2 A,2 B,3 C | %21
w: * niens _ e|cae- * *|lo, e|_ cae-|lo.||Nup- ti-|a- le tha- *|
 D4 A,3 A, | D,2 D,4 D,2 | G,2 F,2 B,3 A, | G,2 ^F,2 G,4 | D,4 A,4 | z8 | z2 D4 C2 | %28
w: * * la-|mo prae- pa-|ra- ta ut _|_ spon- sa-|* ta||Pla- te-|
 B,2 G,2 B,2 A,2 | G,4 D,4 | G,2 G,2 A,4 | F,2 D,2 G,3 G, | C,2 C,2 F,4 | D,2 D,2 _E,3 D, | %34
w: ae et mu- ri|e- *|ius Ex au-|ro pu- ris- si-|mo, Ex au-|ro pu- ris- *|
 C,4 D,3 D, | G,16 || z8 | z8 | z8 | z8 | z8 | z8 | z8 | z8 | z8 | z8 | z8 | z8 | z8 | z6 || %50
w: * * si-|mo.|||||||||||||||
[M:2/2] G,4 G,2 G,2- | G,2 G,2 C,2 _E,2 | D,4 G,2 G,2 | A,2 F,2 B,4 | A,3 A, G,4 | G,4 D,2 G,2 | %56
w: Tun- si- o-|* ni- bus pres-|su- ris ex-|po- li- ti|la- pi- des,|ex- po- li-|
 F,3 G, A,4 | B,4 A,3 A, | D,2 B,4 A,2 | G,2 ^F,2 G,2 C,2 | G,4 D,4 | z8 | z4 F,4 | G,3 A, B,4 | %64
w: ti _ _|la- * pi-|des su- is|co- ap- ta- tur|lo- cis,||per|ma- * *|
 A,2 D2 CB,A,G, | F,2 G,2 D,4 | G,6 G,2 | G,4 C,4 | F,2 D,2 A,4 | D,4 G,4 | A,4 F,2 F,2 | %71
w: num ar- * * * *|ti- fi- cis|dis- po-|nun- tur|per- man- su-|ri sa-|cris e- di-|
 G,2 _E,2 D,4 | G,4 A,4 | F,4 G,4 | C,3 C, F,4 | D,8 | D,4 D,3 D, | G,16 |] %78
w: fi- ci- is,|sa- cris|e- di-|fi- ci- is,|e-|di- fi- ci-|is.|

